X: 17
T: Maudabawn Chapel
C: Ed Reavy
Z: Erik-Fiddler
S: https://thesession.org/tunes/302#setting54218
R: reel
M: 4/4
L: 1/8
K: Gmaj
|:G3D E2DB,|G,A,B,D E/F/G DB,|G,A,B,D GABd|gabg ea ~(3a/a/a/a|
gabg efge|dged BABd|e/f/g fa gedB|AcBA GE{F}ED:|
|:E2 BE dEBE|(3E/E/E/E BE AFDF|EDEF G3 B|AF (3F/F/F/F DFAF|
EBBA [E3B3] A|GAB^c dcde|[A2f2] af gfed|AcBA GEED:|

